X:9
T:Jenta p{\aa} Neset
R:polska L1
H:efter Laurits Tangen
A:Austmarka, Kongsvinger, Norge
Z:id:hn-L1-9
M:3/4
L:1/8
K:Dm
a2 a2 ge | f2 ag/f/ e>e | f2 f>e ^cd | e>f d^c/d/ A2 |
a2 a2 ge | f2 ag/f/ e>e | f2 f>e d^c |1 d2 d2 A2 :|2 d2 d2 d2 ||
|: A2 d>^c de | f2 ag/f/ e>e | f2 f>e ^cd | e>f d^c/d/ A2 |
d2 d>^c de | f2 ag/f/ e>e | f2 f>e d^c |1 d2 d2 A2 :|2 d2 d4 ||

